build/img/svg-sprite/target-mobile.svg

<svg width="62" height="456" viewBox="0 0 62 456" fill="none" xmlns="http://www.w3.org/2000/svg">
<circle cx="31.4367" cy="30.59" r="29.1935" stroke="#C96164" stroke-dasharray="5 5"/>
<line x1="21.9181" y1="20.8852" x2="23.7105" y2="22.6775" stroke="#C96164"/>
<line y1="-0.5" x2="2.53474" y2="-0.5" transform="matrix(-0.707107 0.707107 0.707107 0.707107 40.1471 21.2388)" stroke="#C96164"/>
<line x1="38.5088" y1="37.5332" x2="40.3012" y2="39.3255" stroke="#C96164"/>
<line y1="-0.5" x2="2.53474" y2="-0.5" transform="matrix(-0.707107 0.707107 0.707107 0.707107 23.3568 37.8867)" stroke="#C96164"/>
<line x1="20.4045" y1="30.5889" x2="17.716" y2="30.5889" stroke="#C96164"/>
<line x1="43.9957" y1="30.5889" x2="41.3072" y2="30.5889" stroke="#C96164"/>
<line x1="30.8507" y1="19.8965" x2="30.8507" y2="17.3625" stroke="#C96164"/>
<path d="M31.3507 37.8864V33.7664M31.3507 33.7664C31.3507 33.7664 31.6213 31.3738 32.6531 30.4289C33.7223 29.4498 36.2348 29.4521 36.2348 29.4521C36.2348 29.4521 36.1843 32.317 34.9323 33.278C33.8125 34.1376 31.3507 33.7664 31.3507 33.7664Z" stroke="#002B67"/>
<path d="M31.3507 36.5659V33.7364M31.3507 33.7364C31.3507 33.7364 31.1649 32.0932 30.4562 31.4443C29.7219 30.7718 27.9964 30.7734 27.9964 30.7734C27.9964 30.7734 28.0311 32.741 28.8909 33.401C29.66 33.9913 31.3507 33.7364 31.3507 33.7364Z" stroke="#002B67"/>
<path d="M27.4651 36.8784V39.3997C27.4651 41.5457 29.2048 43.2854 31.3508 43.2854V43.2854C33.4968 43.2854 35.2364 41.5457 35.2364 39.3997V36.8784" stroke="#002B67"/>
<circle cx="31.3508" cy="30.5298" r="7.20073" stroke="#002B67"/>
<line x1="35.2365" y1="40.0015" x2="31.9804" y2="40.0015" stroke="#002B67"/>
<line x1="30.8558" y1="40.0015" x2="29.866" y2="40.0015" stroke="#002B67"/>
<circle cx="30.5844" cy="129.417" r="29.1935" stroke="#C96164" stroke-dasharray="5 5"/>
<path d="M39.8244 132.181L34.3713 126.505C34.2709 126.4 34.111 126.381 33.9886 126.458L30.9636 128.378V122.972C30.9636 122.803 30.827 122.667 30.6587 122.667C30.4904 122.667 30.3539 122.803 30.3539 122.972V128.428L27.3577 126.856L29.4053 119.747H30.3539V121.751C30.3539 121.919 30.4904 122.056 30.6587 122.056C30.827 122.056 30.9634 121.919 30.9634 121.751V119.442C30.9634 119.274 30.827 119.137 30.6587 119.137H29.176C29.0403 119.137 28.9208 119.227 28.8832 119.357L26.703 126.926C26.6629 127.066 26.7262 127.214 26.8544 127.281L30.0266 128.946L29.05 129.511C29.0495 129.511 29.0489 129.512 29.0483 129.512L22.3016 133.414C22.1559 133.498 22.1059 133.685 22.19 133.831L22.9313 135.118C22.9867 135.214 23.0881 135.27 23.1953 135.27C23.2195 135.27 23.2441 135.267 23.2685 135.261L28.2427 134.028L28.0134 135.54C27.4536 135.314 26.9191 135.015 26.4219 134.645C26.287 134.545 26.0959 134.573 25.9956 134.708C25.895 134.843 25.9232 135.035 26.0583 135.135C26.6375 135.566 27.2632 135.909 27.9195 136.16L27.4366 139.346C27.4233 139.434 27.4489 139.523 27.5067 139.591C27.5647 139.658 27.6491 139.697 27.738 139.697H33.5793C33.6681 139.697 33.7525 139.658 33.8104 139.591C33.8683 139.523 33.894 139.434 33.8805 139.346L33.7294 138.349C33.7042 138.182 33.5486 138.067 33.3823 138.093C33.216 138.118 33.1015 138.274 33.1268 138.44L33.2246 139.086H28.0925L28.5062 136.357C29.1969 136.558 29.9148 136.662 30.6424 136.662C31.0209 136.662 31.4023 136.634 31.7836 136.577C32.1336 136.526 32.4763 136.451 32.8106 136.354L32.9232 137.097C32.9461 137.248 33.076 137.356 33.2241 137.356C33.2393 137.356 33.2547 137.355 33.2703 137.353C33.4368 137.328 33.5511 137.172 33.5259 137.005L33.3976 136.159C34.7644 135.642 35.9576 134.745 36.8498 133.542C36.9502 133.406 36.9221 133.215 36.787 133.114C36.6517 133.014 36.4608 133.042 36.3605 133.177C35.5657 134.249 34.5112 135.057 33.3038 135.54L32.5189 130.361L38.7111 133.943C38.7579 133.97 38.8105 133.984 38.8636 133.984C38.8899 133.984 38.9165 133.98 38.9424 133.974C39.0205 133.953 39.087 133.901 39.1274 133.831L39.8687 132.545C39.9366 132.427 39.9185 132.278 39.8244 132.181ZM22.8703 133.79L30.3748 129.45L30.5137 132.835L23.3446 134.613L22.8703 133.79ZM32.7182 135.745C32.386 135.845 32.0441 135.922 31.6947 135.973C30.6409 136.129 29.5885 136.048 28.5986 135.747L28.8834 133.869L30.9017 133.368C31.0423 133.333 31.139 133.204 31.1332 133.059L30.986 129.475L31.8429 129.971L32.7182 135.745ZM38.7519 133.261L31.2475 128.921L34.1046 127.108L39.2261 132.438L38.7519 133.261Z" fill="#002B67"/>
<path fill-rule="evenodd" clip-rule="evenodd" d="M34.3713 126.505L39.8244 132.181C39.9185 132.279 39.9366 132.428 39.8687 132.545L39.1274 133.832C39.087 133.902 39.0205 133.953 38.9424 133.974C38.9165 133.981 38.8899 133.984 38.8636 133.984C38.8105 133.984 38.7579 133.971 38.7111 133.943L31.8429 129.971L30.986 129.476L31.1332 133.06C31.139 133.205 31.0423 133.334 30.9017 133.369L28.8834 133.869L23.2685 135.262C23.2441 135.268 23.2195 135.271 23.1953 135.271C23.0882 135.271 22.9867 135.214 22.9313 135.118L22.19 133.832C22.1059 133.686 22.1559 133.499 22.3016 133.415L29.0483 129.512L29.05 129.511L30.0266 128.946L26.8544 127.282C26.7262 127.215 26.6629 127.066 26.703 126.927L28.8832 119.358C28.9208 119.227 29.0403 119.137 29.176 119.137H30.6587C30.827 119.137 30.9634 119.274 30.9634 119.443V121.751C30.9634 121.92 30.827 122.056 30.6587 122.056C30.4904 122.056 30.3539 121.92 30.3539 121.751V119.748H29.4053L27.3577 126.857L30.3539 128.429V122.972C30.3539 122.804 30.4904 122.667 30.6587 122.667C30.827 122.667 30.9636 122.804 30.9636 122.972V128.379L33.9886 126.459C34.111 126.381 34.2709 126.401 34.3713 126.505ZM30.3748 129.45L22.8703 133.791L23.3446 134.614L30.5137 132.836L30.3748 129.45ZM31.2475 128.921L38.7519 133.262L39.2261 132.439L34.1046 127.108L31.2475 128.921Z" fill="#C96164"/>
<path d="M31.6664 121.888C32.8295 122.053 33.9461 122.515 34.8953 123.221C36.839 124.668 37.9053 126.979 37.7476 129.403C37.7365 129.571 37.8639 129.717 38.0319 129.728C38.0387 129.728 38.0453 129.728 38.052 129.728C38.2112 129.728 38.3454 129.604 38.3559 129.443C38.5271 126.811 37.3693 124.302 35.2589 122.731C34.2283 121.964 33.0159 121.463 31.7524 121.283C31.586 121.259 31.4314 121.375 31.4078 121.542C31.384 121.709 31.4998 121.864 31.6664 121.888Z" fill="#002B67"/>
<path d="M23.836 132.133C23.8755 132.133 23.9157 132.125 23.9544 132.109C24.1095 132.043 24.182 131.864 24.1166 131.709C23.6436 130.587 23.4641 129.354 23.598 128.143C23.7358 126.896 24.2057 125.702 24.957 124.689C25.5982 123.824 26.4019 123.134 27.3459 122.636C27.495 122.558 27.5521 122.373 27.4739 122.224C27.3954 122.075 27.2111 122.017 27.0622 122.096C26.0366 122.636 25.1638 123.386 24.4676 124.325C23.652 125.424 23.1417 126.722 22.992 128.076C22.8469 129.39 23.0415 130.728 23.5551 131.946C23.6041 132.063 23.7172 132.133 23.836 132.133Z" fill="#002B67"/>
<circle cx="30.5651" cy="227.848" r="29.2128" stroke="#C96164" stroke-dasharray="5 5"/>
<path d="M24.3312 223.388V231.302C24.3312 234.575 26.9845 237.228 30.2575 237.228V237.228C33.5306 237.228 36.1839 234.575 36.1839 231.302V228.46" stroke="#002B67"/>
<path d="M34.1335 225.244V226.803C34.1335 227.935 35.0515 228.853 36.1838 228.853V228.853C37.3161 228.853 38.2341 227.935 38.2341 226.803V225.244" stroke="#002B67"/>
<path d="M21.4415 223.963V224.69C21.4415 226.286 22.7353 227.58 24.3312 227.58V227.58C25.9271 227.58 27.2208 226.286 27.2208 224.69V223.963" stroke="#002B67"/>
<line x1="33.774" y1="224.744" x2="38.5987" y2="224.744" stroke="#002B67"/>
<line x1="34.9766" y1="224.64" x2="34.9766" y2="223.427" stroke="#002B67"/>
<line x1="37.188" y1="224.64" x2="37.188" y2="223.427" stroke="#002B67"/>
<path d="M24.8144 222.871C24.6441 223.077 24.4727 223.257 24.3311 223.398C24.1895 223.257 24.0182 223.077 23.8478 222.871C23.6445 222.626 23.4509 222.355 23.31 222.082C23.1671 221.806 23.0945 221.559 23.0945 221.353C23.0945 221.148 23.1671 220.901 23.31 220.624C23.4509 220.352 23.6445 220.081 23.8478 219.835C24.0182 219.63 24.1895 219.449 24.3311 219.309C24.4727 219.449 24.6441 219.63 24.8144 219.835C25.0177 220.081 25.2114 220.352 25.3523 220.624C25.4951 220.901 25.5677 221.148 25.5677 221.353C25.5677 221.559 25.4951 221.806 25.3523 222.082C25.2114 222.355 25.0177 222.626 24.8144 222.871Z" stroke="#C96164"/>
<path d="M28.0421 223.468C27.7763 223.493 27.5274 223.5 27.3281 223.499C27.3272 223.299 27.3337 223.051 27.3586 222.785C27.3883 222.467 27.4431 222.139 27.5361 221.847C27.6304 221.55 27.7537 221.324 27.8992 221.179C28.0448 221.033 28.2707 220.91 28.5671 220.816C28.8594 220.723 29.188 220.668 29.5052 220.638C29.771 220.613 30.0199 220.607 30.2193 220.608C30.2201 220.807 30.2136 221.056 30.1887 221.322C30.159 221.639 30.1043 221.967 30.0112 222.26C29.9169 222.556 29.7936 222.782 29.6481 222.928C29.5026 223.073 29.2766 223.196 28.9802 223.291C28.6879 223.384 28.3593 223.438 28.0421 223.468Z" stroke="#C96164"/>
<path d="M20.6062 223.468C20.872 223.493 21.1209 223.5 21.3203 223.499C21.3211 223.299 21.3146 223.051 21.2897 222.785C21.26 222.467 21.2053 222.139 21.1122 221.847C21.0179 221.55 20.8946 221.324 20.7491 221.179C20.6035 221.033 20.3776 220.91 20.0812 220.816C19.7889 220.723 19.4603 220.668 19.1431 220.638C18.8773 220.613 18.6284 220.607 18.429 220.608C18.4282 220.807 18.4347 221.056 18.4596 221.322C18.4893 221.639 18.5441 221.967 18.6371 222.26C18.7314 222.556 18.8547 222.782 19.0002 222.928C19.1458 223.073 19.3717 223.196 19.6681 223.291C19.9604 223.384 20.289 223.438 20.6062 223.468Z" stroke="#C96164"/>
<circle cx="30.5651" cy="326.714" r="29.2128" stroke="#C96164" stroke-dasharray="5 5"/>
<path d="M36.5959 321.464V318.279M36.5959 318.279C36.5959 318.279 36.8051 316.43 37.6026 315.7C38.429 314.943 40.3708 314.945 40.3708 314.945C40.3708 314.945 40.3318 317.159 39.3642 317.902C38.4987 318.566 36.5959 318.279 36.5959 318.279Z" stroke="#C96164"/>
<path d="M36.5959 320.443V318.256M36.5959 318.256C36.5959 318.256 36.4523 316.986 35.9046 316.484C35.3371 315.965 34.0035 315.966 34.0035 315.966C34.0035 315.966 34.0302 317.486 34.6948 317.997C35.2892 318.453 36.5959 318.256 36.5959 318.256Z" stroke="#C96164"/>
<path d="M20.4988 333.839V325.442H22.1208V322.389L26.51 320.099V325.442H28.5137V322.389L32.712 320.099V325.442H34.6204V322.389L39.0095 320.099V325.442H40.6316V333.839H20.4988Z" stroke="#002B67"/>
<circle cx="24.5582" cy="329.883" r="0.983036" stroke="#C96164"/>
<circle cx="30.5653" cy="329.883" r="0.983036" stroke="#C96164"/>
<circle cx="36.5721" cy="329.883" r="0.983036" stroke="#C96164"/>
<circle cx="30.5844" cy="425.56" r="29.1935" stroke="#C96164" stroke-dasharray="5 5"/>
<path d="M35.9297 419.722C35.4452 419.372 34.8828 419.187 34.3033 419.187C33.3946 419.187 32.5986 419.739 32.1678 420.559C31.7371 419.739 30.9411 419.187 30.0324 419.187C29.0206 419.187 28.0826 419.753 27.523 420.701C27.4294 420.859 27.4858 421.062 27.649 421.153C27.8124 421.244 28.0206 421.189 28.1143 421.031C28.5507 420.291 29.2678 419.85 30.0324 419.85C31.022 419.85 31.8271 420.798 31.8271 421.963C31.8271 422.146 31.9796 422.294 32.1679 422.294C32.3561 422.294 32.5087 422.146 32.5087 421.963C32.5087 420.798 33.3138 419.85 34.3033 419.85C34.7353 419.85 35.157 419.989 35.5231 420.254C35.6741 420.363 35.8876 420.333 35.9999 420.186C36.1122 420.039 36.0807 419.831 35.9297 419.722Z" fill="#E15C66"/>
<path d="M36.5485 430.201C36.476 430.032 36.2765 429.953 36.1027 430.023L33.1237 431.231C32.5239 431.475 31.8535 431.5 31.2355 431.302L24.2482 429.064C23.8083 428.922 23.3322 428.944 22.9082 429.125L22.6309 429.243C22.4585 429.317 22.38 429.512 22.4555 429.68C22.5309 429.847 22.7319 429.924 22.9043 429.85L23.1819 429.732C23.4518 429.617 23.7546 429.603 24.0347 429.693L31.0222 431.931C31.3671 432.042 31.725 432.097 32.0824 432.097C32.5267 432.097 32.9701 432.012 33.3863 431.843L36.3651 430.635C36.5388 430.564 36.6209 430.37 36.5485 430.201Z" fill="#002B67"/>
<path d="M40.9742 427.062C40.9738 427.061 40.9722 427.057 40.9718 427.056L40.9693 427.051C40.6625 426.359 39.8898 425.985 39.1495 426.141C39.2433 425.846 39.2281 425.531 39.1035 425.243C38.9629 424.917 38.7001 424.665 38.3636 424.532C38.3628 424.532 38.3546 424.529 38.3539 424.528C37.6953 424.274 36.9389 424.561 36.6317 425.182L35.5582 427.349L33.8178 427.941C33.493 428.052 33.1355 428.052 32.8115 427.941L32.7617 427.925C34.9533 426.737 37.3139 424.717 37.3139 422.575C37.3139 421.829 37.103 421.121 36.704 420.53C36.6008 420.377 36.3894 420.334 36.2321 420.435C36.0747 420.535 36.0308 420.74 36.134 420.893C36.46 421.377 36.6322 421.958 36.6322 422.575C36.6322 424.393 34.4152 426.331 32.1677 427.484C31.5649 427.175 30.9661 426.808 30.4262 426.416C29.9655 426.083 29.5487 425.732 29.1898 425.377L32.6621 426.531C33.3494 426.76 34.1152 426.432 34.4056 425.785C34.5609 425.441 34.5617 425.044 34.4079 424.697C34.2565 424.356 33.9766 424.095 33.6207 423.963L27.4584 421.665C27.414 421.647 27.3655 421.63 27.306 421.61C26.097 421.207 24.7186 421.391 23.6191 422.103L20.3406 424.227C20.184 424.328 20.1416 424.534 20.2459 424.686C20.3503 424.838 20.5619 424.88 20.7185 424.778L23.997 422.655C24.9209 422.056 26.0751 421.9 27.0849 422.237C27.1342 422.254 27.1729 422.267 27.2104 422.282L33.377 424.582C33.5602 424.649 33.704 424.784 33.782 424.959C33.8624 425.141 33.8622 425.34 33.7811 425.52C33.6314 425.853 33.2369 426.022 32.8828 425.904L28.9709 424.603C28.6583 424.499 28.3191 424.512 28.0155 424.639C27.6383 424.798 27.3618 425.109 27.2571 425.495C27.0809 426.142 27.4525 426.822 28.1032 427.044L32.5865 428.567C33.0554 428.726 33.5724 428.726 34.0425 428.567L39.1826 426.818C39.6413 426.662 40.1511 426.879 40.3447 427.316L40.3463 427.32C40.4433 427.542 40.4448 427.789 40.3507 428.013C40.2564 428.237 40.0777 428.412 39.8476 428.505L37.1028 429.619C36.9291 429.689 36.847 429.883 36.9195 430.052C36.9741 430.179 37.1007 430.256 37.2342 430.256C37.2779 430.256 37.3223 430.247 37.3653 430.23L40.11 429.117C40.5088 428.955 40.8184 428.652 40.9818 428.263C41.1449 427.875 41.1422 427.448 40.9742 427.062ZM28.3283 426.418C28.0113 426.31 27.8302 425.979 27.916 425.664C27.9582 425.509 28.0584 425.379 28.1958 425.295C28.6751 425.863 29.287 426.418 30.0188 426.947C30.0593 426.977 30.1009 427.005 30.142 427.035L28.3283 426.418ZM38.477 426.003L38.3024 426.416L36.4679 427.04L37.2459 425.469C37.3987 425.161 37.7748 425.018 38.1021 425.144C38.1026 425.144 38.1069 425.146 38.1073 425.146C38.2746 425.212 38.4052 425.338 38.4751 425.499C38.5451 425.662 38.5458 425.84 38.477 426.003Z" fill="#002B67"/>
<path fill-rule="evenodd" clip-rule="evenodd" d="M28.1958 425.294C28.675 425.863 29.2869 426.417 30.0187 426.947C30.0329 426.957 30.593 427.262 31.1378 427.558C31.6527 427.838 32.154 428.111 32.1676 428.12L32.7616 427.924C34.9532 426.737 37.3138 424.717 37.3138 422.575C37.3138 421.828 37.1029 421.121 36.7039 420.53C36.6007 420.377 36.3893 420.334 36.232 420.434C36.0746 420.535 36.0307 420.74 36.1339 420.893C36.4599 421.376 36.6321 421.958 36.6321 422.575C36.6321 424.392 34.4151 426.33 32.1676 427.484C31.5648 427.174 30.966 426.807 30.4261 426.415C29.9654 426.082 29.5486 425.731 29.1897 425.376C28.8772 425.272 28.4993 425.167 28.1958 425.294Z" fill="#C96164"/>
<line x1="31.4802" y1="60.2837" x2="31.4802" y2="99.7236" stroke="#C96164" stroke-dasharray="5 5"/>
<line x1="31.4802" y1="159.111" x2="31.4802" y2="198.551" stroke="#C96164" stroke-dasharray="5 5"/>
<line x1="31.8506" y1="258.26" x2="31.8506" y2="297.7" stroke="#C96164" stroke-dasharray="5 5"/>
<line x1="31.8506" y1="356.792" x2="31.8506" y2="396.232" stroke="#C96164" stroke-dasharray="5 5"/>
</svg>

<svg width="62" height="456" fill="none" xmlns="http://www.w3.org/2000/svg"><circle cx="31.437" cy="30.59" r="29.194" stroke="#C96164" stroke-dasharray="5 5"/><path stroke="#C96164" d="M21.918 20.885l1.792 1.792m16.084-1.792L38 22.678m.509 14.855l1.792 1.792m-17.298-1.792l-1.792 1.793m-.807-8.737h-2.688m26.28 0h-2.689M30.851 19.896v-2.533"/><path d="M31.35 37.886v-4.12m0 0s.271-2.392 1.303-3.337c1.07-.98 3.582-.977 3.582-.977s-.05 2.865-1.303 3.826c-1.12.86-3.581.488-3.581.488zm0 2.8v-2.83m0 0s-.185-1.643-.894-2.292c-.734-.672-2.46-.67-2.46-.67s.035 1.967.895 2.627c.769.59 2.46.335 2.46.335zm-3.885 3.142V39.4a3.886 3.886 0 0 0 3.886 3.885v0a3.886 3.886 0 0 0 3.885-3.885v-2.522" stroke="#002B67"/><circle cx="31.351" cy="30.53" r="7.201" stroke="#002B67"/><path stroke="#002B67" d="M35.236 40.002H31.98m-1.124 0h-.99"/><circle cx="30.584" cy="129.417" r="29.194" stroke="#C96164" stroke-dasharray="5 5"/><path d="M39.824 132.181l-5.453-5.676a.305.305 0 0 0-.382-.047l-3.025 1.92v-5.406a.305.305 0 1 0-.61 0v5.456l-2.996-1.572 2.047-7.109h.949v2.004a.305.305 0 0 0 .61 0v-2.309a.305.305 0 0 0-.305-.305h-1.483a.305.305 0 0 0-.293.22l-2.18 7.569c-.04.14.023.288.151.355l3.173 1.665-.977.565-.002.001-6.746 3.902a.306.306 0 0 0-.112.417l.741 1.287a.304.304 0 0 0 .337.143l4.975-1.233-.23 1.512a7.144 7.144 0 0 1-1.591-.895.305.305 0 0 0-.364.49c.58.431 1.205.774 1.861 1.025l-.482 3.186a.306.306 0 0 0 .301.351h5.841a.306.306 0 0 0 .301-.351l-.15-.997a.304.304 0 1 0-.603.091l.098.646h-5.133l.414-2.729a7.64 7.64 0 0 0 3.278.22c.35-.051.692-.126 1.027-.223l.112.743a.305.305 0 1 0 .603-.092l-.128-.846a7.662 7.662 0 0 0 3.452-2.617.305.305 0 0 0-.49-.365 7.061 7.061 0 0 1-3.056 2.363l-.785-5.179 6.192 3.582a.305.305 0 0 0 .416-.112l.742-1.286a.305.305 0 0 0-.045-.364zM22.87 133.79l7.505-4.34.139 3.385-7.17 1.778-.474-.823zm9.848 1.955c-.332.1-.674.177-1.023.228a7.063 7.063 0 0 1-3.096-.226l.284-1.878 2.019-.501a.306.306 0 0 0 .231-.309l-.147-3.584.857.496.875 5.774zm6.034-2.484l-7.505-4.34 2.858-1.813 5.121 5.33-.474.823z" fill="#002B67"/><path fill-rule="evenodd" clip-rule="evenodd" d="M34.371 126.505l5.453 5.676a.305.305 0 0 1 .045.364l-.742 1.287a.305.305 0 0 1-.416.111l-6.868-3.972-.857-.495.147 3.584a.306.306 0 0 1-.231.309l-2.019.5-5.614 1.393a.305.305 0 0 1-.337-.144l-.742-1.286a.306.306 0 0 1 .112-.417l6.746-3.903.002-.001.977-.565-3.173-1.664a.306.306 0 0 1-.151-.355l2.18-7.569a.305.305 0 0 1 .293-.221h1.483c.168 0 .304.137.304.306v2.308a.304.304 0 1 1-.61 0v-2.003h-.948l-2.047 7.109 2.996 1.572v-5.457a.305.305 0 0 1 .61 0v5.407l3.025-1.92a.305.305 0 0 1 .382.046zm-3.996 2.945l-7.505 4.341.475.823 7.169-1.778-.14-3.386zm.872-.529l7.505 4.341.474-.823-5.121-5.331-2.857 1.813z" fill="#C96164"/><path d="M31.666 121.888a7.102 7.102 0 0 1 3.23 1.333 7.102 7.102 0 0 1 2.852 6.182.306.306 0 0 0 .284.325h.02c.16 0 .293-.124.304-.285a7.71 7.71 0 0 0-3.097-6.712 7.716 7.716 0 0 0-3.507-1.448.306.306 0 0 0-.086.605zm-7.83 10.245a.306.306 0 0 0 .28-.424 7.117 7.117 0 0 1 .84-7.02 7.042 7.042 0 0 1 2.39-2.053.305.305 0 0 0-.284-.54 7.636 7.636 0 0 0-2.594 2.229 7.73 7.73 0 0 0-.913 7.621.304.304 0 0 0 .281.187z" fill="#002B67"/><circle cx="30.565" cy="227.848" r="29.213" stroke="#C96164" stroke-dasharray="5 5"/><path d="M24.331 223.388v7.914a5.926 5.926 0 0 0 5.927 5.926v0a5.926 5.926 0 0 0 5.926-5.926v-2.842" stroke="#002B67"/><path d="M34.133 225.244v1.559a2.05 2.05 0 0 0 2.05 2.05v0a2.05 2.05 0 0 0 2.051-2.05v-1.559m-16.792-1.281v.727a2.89 2.89 0 0 0 2.89 2.89v0a2.89 2.89 0 0 0 2.889-2.89v-.727m6.553.781h4.825m-3.622-.104v-1.213m2.211 1.213v-1.213" stroke="#002B67"/><path d="M24.814 222.871c-.17.206-.341.386-.483.527a7.473 7.473 0 0 1-.483-.527 4.526 4.526 0 0 1-.538-.789c-.143-.276-.215-.523-.215-.729 0-.205.072-.452.215-.729a4.57 4.57 0 0 1 .538-.789c.17-.205.341-.386.483-.526.142.14.313.321.483.526.204.246.397.517.538.789.143.277.216.524.216.729 0 .206-.073.453-.216.729a4.44 4.44 0 0 1-.538.789zm3.228.597a7.34 7.34 0 0 1-.714.031c0-.2.006-.448.03-.714.03-.318.085-.646.178-.938.094-.297.218-.523.363-.668.146-.146.372-.269.668-.363a4.58 4.58 0 0 1 .938-.178 7.31 7.31 0 0 1 .714-.03c.001.199-.005.448-.03.714a4.59 4.59 0 0 1-.178.938c-.094.296-.217.522-.363.668-.145.145-.371.268-.668.363-.292.093-.62.147-.938.177zm-7.436 0c.266.025.515.032.714.031.001-.2-.005-.448-.03-.714a4.537 4.537 0 0 0-.178-.938c-.094-.297-.217-.523-.363-.668-.145-.146-.371-.269-.668-.363a4.58 4.58 0 0 0-.938-.178 7.31 7.31 0 0 0-.714-.03c0 .199.006.448.03.714.03.317.085.645.178.938.094.296.218.522.363.668.146.145.372.268.668.363.292.093.621.147.938.177z" stroke="#C96164"/><circle cx="30.565" cy="326.714" r="29.213" stroke="#C96164" stroke-dasharray="5 5"/><path d="M36.596 321.464v-3.185m0 0s.21-1.849 1.007-2.579c.826-.757 2.768-.755 2.768-.755s-.04 2.214-1.007 2.957c-.865.664-2.768.377-2.768.377zm0 2.164v-2.187m0 0s-.144-1.27-.691-1.772c-.568-.519-1.901-.518-1.901-.518s.026 1.52.69 2.031c.595.456 1.902.259 1.902.259z" stroke="#C96164"/><path d="M20.499 333.839v-8.397h1.622v-3.053l4.389-2.29v5.343h2.004v-3.053l4.198-2.29v5.343h1.908v-3.053l4.39-2.29v5.343h1.622v8.397H20.499z" stroke="#002B67"/><circle cx="24.558" cy="329.883" r=".983" stroke="#C96164"/><circle cx="30.565" cy="329.883" r=".983" stroke="#C96164"/><circle cx="36.572" cy="329.883" r=".983" stroke="#C96164"/><circle cx="30.584" cy="425.56" r="29.194" stroke="#C96164" stroke-dasharray="5 5"/><path d="M35.93 419.722a2.766 2.766 0 0 0-1.627-.535c-.908 0-1.704.552-2.135 1.372-.43-.82-1.227-1.372-2.136-1.372-1.011 0-1.95.566-2.509 1.514a.326.326 0 0 0 .126.452.347.347 0 0 0 .465-.122c.437-.74 1.154-1.181 1.918-1.181.99 0 1.795.948 1.795 2.113 0 .183.153.331.34.331.19 0 .342-.148.342-.331 0-1.165.805-2.113 1.794-2.113.432 0 .854.139 1.22.404a.347.347 0 0 0 .477-.068.326.326 0 0 0-.07-.464z" fill="#E15C66"/><path d="M36.548 430.201a.345.345 0 0 0-.445-.178l-2.98 1.208a2.77 2.77 0 0 1-1.887.071l-6.988-2.238a1.915 1.915 0 0 0-1.34.061l-.277.118a.329.329 0 0 0-.175.437.344.344 0 0 0 .448.17l.278-.118c.27-.115.573-.129.853-.039l6.987 2.238a3.46 3.46 0 0 0 2.364-.088l2.98-1.208a.329.329 0 0 0 .182-.434z" fill="#002B67"/><path d="M40.974 427.062l-.002-.006-.003-.005c-.306-.692-1.08-1.066-1.82-.91.094-.295.08-.61-.046-.898a1.328 1.328 0 0 0-.75-.715c-.658-.254-1.414.033-1.721.654l-1.074 2.167-1.74.592a1.562 1.562 0 0 1-1.006 0l-.05-.016c2.191-1.188 4.552-3.208 4.552-5.35 0-.746-.211-1.454-.61-2.045a.346.346 0 0 0-.472-.095.325.325 0 0 0-.098.458c.326.484.498 1.065.498 1.682 0 1.818-2.217 3.756-4.464 4.909a13.442 13.442 0 0 1-1.742-1.068c-.46-.333-.877-.684-1.236-1.039l3.472 1.154c.687.229 1.453-.099 1.744-.746.155-.344.156-.741.002-1.088a1.376 1.376 0 0 0-.787-.734l-6.163-2.298a2.685 2.685 0 0 0-.152-.055c-1.209-.403-2.587-.219-3.687.493l-3.278 2.124a.325.325 0 0 0-.095.459.347.347 0 0 0 .473.092l3.278-2.123c.924-.599 2.078-.755 3.088-.418.05.017.088.03.125.045l6.167 2.3a.705.705 0 0 1 .405.377.68.68 0 0 1 0 .561.735.735 0 0 1-.9.384l-3.911-1.301a1.361 1.361 0 0 0-.956.036c-.377.159-.653.47-.758.856-.176.647.195 1.327.846 1.549l4.483 1.523c.47.159.986.159 1.456 0l5.14-1.749a.942.942 0 0 1 1.163.498l.001.004a.874.874 0 0 1 .005.693.91.91 0 0 1-.503.492l-2.745 1.114a.328.328 0 0 0-.184.433.342.342 0 0 0 .446.178l2.745-1.113a1.58 1.58 0 0 0 .872-.854c.163-.388.16-.815-.008-1.201zm-12.646-.644a.629.629 0 0 1-.412-.754.624.624 0 0 1 .28-.369c.48.568 1.091 1.123 1.823 1.652.04.03.082.058.123.088l-1.814-.617zm10.149-.415l-.175.413-1.834.624.778-1.571a.685.685 0 0 1 .856-.325l.005.002a.663.663 0 0 1 .368.353.64.64 0 0 1 .002.504z" fill="#002B67"/><path fill-rule="evenodd" clip-rule="evenodd" d="M28.196 425.294c.479.569 1.09 1.123 1.823 1.653.014.01.574.315 1.119.611.515.28 1.016.553 1.03.562l.594-.196c2.191-1.187 4.552-3.207 4.552-5.349 0-.747-.211-1.454-.61-2.045a.347.347 0 0 0-.472-.096.326.326 0 0 0-.098.459 2.99 2.99 0 0 1 .498 1.682c0 1.817-2.217 3.755-4.464 4.909a13.56 13.56 0 0 1-1.742-1.069c-.46-.333-.877-.684-1.236-1.039-.313-.104-.69-.209-.994-.082z" fill="#C96164"/><path stroke="#C96164" stroke-dasharray="5 5" d="M31.48 60.284v39.44m0 59.387v39.44m.371 59.709v39.44m0 59.092v39.44"/></svg>
